assets/person.svg

<?xml version="1.0" encoding="UTF-8" standalone="no"?><!DOCTYPE svg PUBLIC "-//W3C//DTD SVG 1.1//EN" "http://www.w3.org/Graphics/SVG/1.1/DTD/svg11.dtd"><svg width="100%" height="100%" viewBox="0 0 58 57" version="1.1" xmlns="http://www.w3.org/2000/svg" xmlns:xlink="http://www.w3.org/1999/xlink" xml:space="preserve" xmlns:serif="http://www.serif.com/" style="fill-rule:evenodd;clip-rule:evenodd;stroke-linejoin:round;stroke-miterlimit:1.41421;"><rect id="Artboard1" x="-229.92" y="-468.24" width="345.6" height="1464" style="fill:none;"/><clipPath id="_clip1"><rect x="-229.92" y="-468.24" width="345.6" height="1464"/></clipPath><g clip-path="url(#_clip1)"><rect id="tło" x="-229.92" y="-84.24" width="345.6" height="818.4" style="fill:#fff;"/><g id="MEET-OUR-TEAM" serif:id="MEET OUR TEAM"><g><rect x="1.221" y="0.781" width="54.459" height="54.459" style="fill:#c5eae1;"/><g><g><clipPath id="_clip2"><rect x="9.475" y="27.492" width="37.866" height="12.146"/></clipPath><g clip-path="url(#_clip2)"><path d="M46.312,68.399c0,1.852 -1.359,3.354 -3.036,3.354l-29.736,0c-1.677,0 -3.037,-1.502 -3.037,-3.354l0,-37.553c0,-1.852 1.36,-3.354 3.037,-3.354l29.736,0c1.677,0 3.036,1.502 3.036,3.354l0,37.553Z" style="fill:none;stroke:#6ecbb4;stroke-width:0.24px;"/><path d="M45.079,66.826c0,1.722 -1.266,3.119 -2.828,3.119l-27.687,0c-1.562,0 -2.828,-1.397 -2.828,-3.119l0,-34.931c0,-1.723 1.266,-3.119 2.828,-3.119l27.687,0c1.562,0 2.828,1.396 2.828,3.119l0,34.931Z" style="fill:none;stroke:#6ecbb4;stroke-width:0.24px;"/><path d="M15.214,30.788c0,1.112 -0.764,2.013 -1.707,2.013l-2.326,0c-0.942,0 -1.706,-0.901 -1.706,-2.013c0,-1.111 0.764,-2.012 1.706,-2.012l2.326,0c0.943,0 1.707,0.901 1.707,2.012Z" style="fill:none;stroke:#6ecbb4;stroke-width:0.24px;"/><path d="M47.341,30.788c0,1.112 -0.764,2.013 -1.706,2.013l-2.327,0c-0.942,0 -1.706,-0.901 -1.706,-2.013c0,-1.111 0.764,-2.012 1.706,-2.012l2.327,0c0.942,0 1.706,0.901 1.706,2.012Z" style="fill:none;stroke:#6ecbb4;stroke-width:0.24px;"/></g></g><g><clipPath id="_clip3"><rect x="6.887" y="34.052" width="43.126" height="13.814"/></clipPath><g clip-path="url(#_clip3)"><path d="M12.42,48.869c0,0 -0.205,-3.638 -5.533,-9.274c0,0 1.229,-5.43 5.533,-3.484c0,0 1.148,1.106 0,12.758Z" style="fill:none;stroke:#6ecbb4;stroke-width:0.24px;"/><path d="M44.48,48.869c0,0 0.205,-3.638 5.533,-9.274c0,0 -1.23,-5.43 -5.533,-3.484c0,0 -1.148,1.106 0,12.758Z" style="fill:none;stroke:#6ecbb4;stroke-width:0.24px;"/><path d="M28.466,34.456c-10.434,-1.499 -16.054,1.655 -16.054,1.655l0,14.372c0,0 -0.186,1.358 0,3.897c0.186,2.539 -0.531,6.56 -0.393,11.67c0.138,5.111 0.393,14.588 0.393,14.588l11.527,0l0,-0.607c0,-2.289 2.425,-4.125 4.527,-4.125c2.102,0 4.528,1.836 4.528,4.125l0,0.607l11.526,0l0,-13.077c0,0 0.282,-3.545 0.713,-8.816c0.474,-5.803 -0.765,-11.879 -0.765,-11.879l0.052,-10.755c0,0 -5.62,-3.154 -16.054,-1.655Z" style="fill:none;stroke:#6ecbb4;stroke-width:0.24px;"/><path d="M28.466,35.135c-10.434,-1.363 -16.054,1.505 -16.054,1.505l0,13.07c0,0 -0.186,1.236 0,3.546c0.186,2.308 -0.531,5.965 -0.393,10.612c0.138,4.648 0.393,15.604 0.393,15.604l11.527,0l0,-2.889c0,-2.082 2.425,-3.752 4.527,-3.752c2.102,0 4.528,1.67 4.528,3.752l0,2.889l11.526,0l0,-14.23c0,0 0.282,-3.224 0.713,-8.018c0.474,-5.276 -0.765,-10.802 -0.765,-10.802l0.052,-9.782c0,0 -5.62,-2.868 -16.054,-1.505Z" style="fill:none;stroke:#6ecbb4;stroke-width:0.24px;"/></g></g><path d="M37.154,30.576l-8.916,3.065l-8.916,-3.065l-1.614,4.096c0,0 3.227,3.233 10.53,3.233c7.303,0 10.529,-3.233 10.529,-3.233l-1.613,-4.096Z" style="fill:none;stroke:#6ecbb4;stroke-width:0.24px;"/><path d="M11.655,14.868c-0.631,0.549 -1.117,1.045 -1.117,4.34c0,3.295 0.486,3.79 1.117,4.339c1.286,1.122 2.875,1.377 2.875,1.377l0,-5.716l0,-5.716c0,0 -1.589,0.255 -2.875,1.376Z" style="fill:none;stroke:#6ecbb4;stroke-width:0.24px;"/><path d="M12.008,16.042c-0.377,0.401 -0.668,0.762 -0.668,3.166c0,2.403 0.291,2.765 0.668,3.165c0.77,0.819 1.72,1.005 1.72,1.005l0,-4.17l0,-4.17c0,0 -0.95,0.186 -1.72,1.004Z" style="fill:none;stroke:#6ecbb4;stroke-width:0.24px;"/><path d="M11.391,17.758c-0.033,0.379 -0.051,0.851 -0.051,1.45c0,0.6 0.018,1.072 0.051,1.449l2.337,0l0,-1.449l0,-1.45l-2.337,0Z" style="fill:none;stroke:#6ecbb4;stroke-width:0.24px;"/><path d="M44.643,14.868c0.63,0.549 1.117,1.045 1.117,4.34c0,3.295 -0.487,3.79 -1.117,4.339c-1.287,1.122 -2.876,1.377 -2.876,1.377l0,-5.716l0,-5.716c0,0 1.589,0.255 2.876,1.376Z" style="fill:none;stroke:#6ecbb4;stroke-width:0.24px;"/><path d="M44.289,16.042c0.378,0.401 0.668,0.762 0.668,3.166c0,2.403 -0.29,2.765 -0.668,3.165c-0.769,0.819 -1.719,1.005 -1.719,1.005l0,-4.17l0,-4.17c0,0 0.95,0.186 1.719,1.004Z" style="fill:none;stroke:#6ecbb4;stroke-width:0.24px;"/><path d="M44.907,17.758c0.032,0.379 0.05,0.851 0.05,1.45c0,0.6 -0.018,1.072 -0.05,1.449l-2.337,0l0,-1.449l0,-1.45l2.337,0Z" style="fill:none;stroke:#6ecbb4;stroke-width:0.24px;"/><path d="M43.269,19.255c-0.027,8.301 -6.777,15.01 -15.079,14.985c-8.301,-0.028 -15.009,-6.778 -14.984,-15.08c0.028,-8.302 6.778,-15.008 15.077,-14.984c8.304,0.027 15.011,6.777 14.986,15.079Z" style="fill:none;stroke:#6ecbb4;stroke-width:0.24px;"/><path d="M40.044,20.34c-0.022,6.718 -5.326,12.144 -11.848,12.123c-6.521,-0.021 -11.794,-5.479 -11.772,-12.197c0.022,-6.717 5.325,-12.144 11.848,-12.123c6.524,0.019 11.793,5.482 11.772,12.197Z" style="fill:none;stroke:#6ecbb4;stroke-width:0.24px;"/><path d="M16.424,20.266c-0.118,-1.571 0.129,-3.175 0.641,-4.693c0.543,-1.51 1.392,-2.919 2.482,-4.123c2.166,-2.432 5.432,-3.878 8.727,-3.858c3.295,0 6.551,1.465 8.704,3.91c1.083,1.213 1.922,2.628 2.457,4.141c0.501,1.523 0.737,3.126 0.609,4.697c-0.21,-3.134 -1.52,-6.119 -3.68,-8.253c-2.145,-2.135 -5.094,-3.411 -8.093,-3.392c-2.999,-0.038 -5.956,1.217 -8.115,3.339c-2.176,2.12 -3.504,5.097 -3.732,8.232Z" style="fill:none;stroke:#6ecbb4;stroke-width:0.24px;"/><path d="M32.892,29.714c-0.366,-0.001 -0.721,-0.183 -0.93,-0.513c-0.326,-0.514 -0.173,-1.195 0.342,-1.522c5.669,-3.585 2.762,-10.23 2.635,-10.512c-0.249,-0.555 -0.003,-1.209 0.553,-1.459c0.557,-0.249 1.208,-0.002 1.459,0.555c1.346,2.983 2.349,9.601 -3.469,13.281c-0.181,0.116 -0.389,0.171 -0.59,0.17Z" style="fill:none;stroke:#6ecbb4;stroke-width:0.24px;"/><path d="M35.423,13.712c-0.002,0.685 -0.559,1.24 -1.244,1.237c-0.685,-0.001 -1.239,-0.56 -1.238,-1.244c0.002,-0.686 0.56,-1.241 1.244,-1.237c0.687,0.003 1.241,0.559 1.238,1.244Z" style="fill:none;stroke:#6ecbb4;stroke-width:0.24px;"/></g></g></g><g id="Head"><g id="baner"><g id="kulka"></g></g></g></g></svg>

<?xml version="1.0" encoding="UTF-8" standalone="no"?>
<!DOCTYPE svg PUBLIC "-//W3C//DTD SVG 1.1//EN" "http://www.w3.org/Graphics/SVG/1.1/DTD/svg11.dtd">
<svg width="100%" height="100%" viewBox="0 0 55 55" version="1.1" xmlns="http://www.w3.org/2000/svg" xmlns:xlink="http://www.w3.org/1999/xlink" xml:space="preserve" xmlns:serif="http://www.serif.com/" style="fill-rule:evenodd;clip-rule:evenodd;stroke-linejoin:round;stroke-miterlimit:1.41421;">
    <g id="Artboard1" transform="matrix(0.978071,0,0,0.985862,0,0)">
        <rect x="0" y="0" width="55.68" height="55.24" style="fill:none;"/>
        <clipPath id="_clip1">
            <rect x="0" y="0" width="55.68" height="55.24"/>
        </clipPath>
        <g clip-path="url(#_clip1)">
            <g transform="matrix(1.02242,0,0,1.01434,-1.24838,-0.792199)">
                <g id="MEET-OUR-TEAM" serif:id="MEET OUR TEAM">
                    <rect x="1.221" y="0.781" width="54.459" height="54.459" style="fill:rgb(197,234,225);"/>
                    <clipPath id="_clip2">
                        <rect x="1.221" y="0.781" width="54.459" height="54.459"/>
                    </clipPath>
                    <g clip-path="url(#_clip2)">
                        <g>
                            <g>
                                <path d="M46.312,68.399C46.312,70.251 44.953,71.753 43.276,71.753L13.54,71.753C11.863,71.753 10.503,70.251 10.503,68.399L10.503,30.846C10.503,28.994 11.863,27.492 13.54,27.492L43.276,27.492C44.953,27.492 46.312,28.994 46.312,30.846L46.312,68.399Z" style="fill:none;stroke:rgb(110,203,180);stroke-width:0.24px;"/>
                                <path d="M45.079,66.826C45.079,68.548 43.813,69.945 42.251,69.945L14.564,69.945C13.002,69.945 11.736,68.548 11.736,66.826L11.736,31.895C11.736,30.172 13.002,28.776 14.564,28.776L42.251,28.776C43.813,28.776 45.079,30.172 45.079,31.895L45.079,66.826Z" style="fill:none;stroke:rgb(110,203,180);stroke-width:0.24px;"/>
                                <path d="M15.214,30.788C15.214,31.9 14.45,32.801 13.507,32.801L11.181,32.801C10.239,32.801 9.475,31.9 9.475,30.788C9.475,29.677 10.239,28.776 11.181,28.776L13.507,28.776C14.45,28.776 15.214,29.677 15.214,30.788Z" style="fill:none;stroke:rgb(110,203,180);stroke-width:0.24px;"/>
                                <path d="M47.341,30.788C47.341,31.9 46.577,32.801 45.635,32.801L43.308,32.801C42.366,32.801 41.602,31.9 41.602,30.788C41.602,29.677 42.366,28.776 43.308,28.776L45.635,28.776C46.577,28.776 47.341,29.677 47.341,30.788Z" style="fill:none;stroke:rgb(110,203,180);stroke-width:0.24px;"/>
                            </g>
                            <g>
                                <path d="M12.42,48.869C12.42,48.869 12.215,45.231 6.887,39.595C6.887,39.595 8.116,34.165 12.42,36.111C12.42,36.111 13.568,37.217 12.42,48.869Z" style="fill:none;stroke:rgb(110,203,180);stroke-width:0.24px;"/>
                                <path d="M44.48,48.869C44.48,48.869 44.685,45.231 50.013,39.595C50.013,39.595 48.783,34.165 44.48,36.111C44.48,36.111 43.332,37.217 44.48,48.869Z" style="fill:none;stroke:rgb(110,203,180);stroke-width:0.24px;"/>
                                <path d="M28.466,34.456C18.032,32.957 12.412,36.111 12.412,36.111L12.412,50.483C12.412,50.483 12.226,51.841 12.412,54.38C12.598,56.919 11.881,60.94 12.019,66.05C12.157,71.161 12.412,80.638 12.412,80.638L23.939,80.638L23.939,80.031C23.939,77.742 26.364,75.906 28.466,75.906C30.568,75.906 32.994,77.742 32.994,80.031L32.994,80.638L44.52,80.638L44.52,67.561C44.52,67.561 44.802,64.016 45.233,58.745C45.707,52.942 44.468,46.866 44.468,46.866L44.52,36.111C44.52,36.111 38.9,32.957 28.466,34.456Z" style="fill:none;stroke:rgb(110,203,180);stroke-width:0.24px;"/>
                                <path d="M28.466,35.135C18.032,33.772 12.412,36.64 12.412,36.64L12.412,49.71C12.412,49.71 12.226,50.946 12.412,53.256C12.598,55.564 11.881,59.221 12.019,63.868C12.157,68.516 12.412,79.472 12.412,79.472L23.939,79.472L23.939,76.583C23.939,74.501 26.364,72.831 28.466,72.831C30.568,72.831 32.994,74.501 32.994,76.583L32.994,79.472L44.52,79.472L44.52,65.242C44.52,65.242 44.802,62.018 45.233,57.224C45.707,51.948 44.468,46.422 44.468,46.422L44.52,36.64C44.52,36.64 38.9,33.772 28.466,35.135Z" style="fill:none;stroke:rgb(110,203,180);stroke-width:0.24px;"/>
                            </g>
                            <path d="M37.154,30.576L28.238,33.641L19.322,30.576L17.708,34.672C17.708,34.672 20.935,37.905 28.238,37.905C35.541,37.905 38.767,34.672 38.767,34.672L37.154,30.576Z" style="fill:none;stroke:rgb(110,203,180);stroke-width:0.24px;"/>
                            <path d="M11.655,14.868C11.024,15.417 10.538,15.913 10.538,19.208C10.538,22.503 11.024,22.998 11.655,23.547C12.941,24.669 14.53,24.924 14.53,24.924L14.53,19.208L14.53,13.492C14.53,13.492 12.941,13.747 11.655,14.868Z" style="fill:none;stroke:rgb(110,203,180);stroke-width:0.24px;"/>
                            <path d="M12.008,16.042C11.631,16.443 11.34,16.804 11.34,19.208C11.34,21.611 11.631,21.973 12.008,22.373C12.778,23.192 13.728,23.378 13.728,23.378L13.728,19.208L13.728,15.038C13.728,15.038 12.778,15.224 12.008,16.042Z" style="fill:none;stroke:rgb(110,203,180);stroke-width:0.24px;"/>
                            <path d="M11.391,17.758C11.358,18.137 11.34,18.609 11.34,19.208C11.34,19.808 11.358,20.28 11.391,20.657L13.728,20.657L13.728,19.208L13.728,17.758L11.391,17.758Z" style="fill:none;stroke:rgb(110,203,180);stroke-width:0.24px;"/>
                            <path d="M44.643,14.868C45.273,15.417 45.76,15.913 45.76,19.208C45.76,22.503 45.273,22.998 44.643,23.547C43.356,24.669 41.767,24.924 41.767,24.924L41.767,19.208L41.767,13.492C41.767,13.492 43.356,13.747 44.643,14.868Z" style="fill:none;stroke:rgb(110,203,180);stroke-width:0.24px;"/>
                            <path d="M44.289,16.042C44.667,16.443 44.957,16.804 44.957,19.208C44.957,21.611 44.667,21.973 44.289,22.373C43.52,23.192 42.57,23.378 42.57,23.378L42.57,19.208L42.57,15.038C42.57,15.038 43.52,15.224 44.289,16.042Z" style="fill:none;stroke:rgb(110,203,180);stroke-width:0.24px;"/>
                            <path d="M44.907,17.758C44.939,18.137 44.957,18.609 44.957,19.208C44.957,19.808 44.939,20.28 44.907,20.657L42.57,20.657L42.57,19.208L42.57,17.758L44.907,17.758Z" style="fill:none;stroke:rgb(110,203,180);stroke-width:0.24px;"/>
                            <path d="M43.269,19.255C43.242,27.556 36.492,34.265 28.19,34.24C19.889,34.212 13.181,27.462 13.206,19.16C13.234,10.858 19.984,4.152 28.283,4.176C36.587,4.203 43.294,10.953 43.269,19.255Z" style="fill:none;stroke:rgb(110,203,180);stroke-width:0.24px;"/>
                            <path d="M40.044,20.34C40.022,27.058 34.718,32.484 28.196,32.463C21.675,32.442 16.402,26.984 16.424,20.266C16.446,13.549 21.749,8.122 28.272,8.143C34.796,8.162 40.065,13.625 40.044,20.34Z" style="fill:none;stroke:rgb(110,203,180);stroke-width:0.24px;"/>
                            <path d="M16.424,20.266C16.306,18.695 16.553,17.091 17.065,15.573C17.608,14.063 18.457,12.654 19.547,11.45C21.713,9.018 24.979,7.572 28.274,7.592C31.569,7.592 34.825,9.057 36.978,11.502C38.061,12.715 38.9,14.13 39.435,15.643C39.936,17.166 40.172,18.769 40.044,20.34C39.834,17.206 38.524,14.221 36.364,12.087C34.219,9.952 31.27,8.676 28.271,8.695C25.272,8.657 22.315,9.912 20.156,12.034C17.98,14.154 16.652,17.131 16.424,20.266Z" style="fill:none;stroke:rgb(110,203,180);stroke-width:0.24px;"/>
                            <path d="M32.892,29.714C32.526,29.713 32.171,29.531 31.962,29.201C31.636,28.687 31.789,28.006 32.304,27.679C37.973,24.094 35.066,17.449 34.939,17.167C34.69,16.612 34.936,15.958 35.492,15.708C36.049,15.459 36.7,15.706 36.951,16.263C38.297,19.246 39.3,25.864 33.482,29.544C33.301,29.66 33.093,29.715 32.892,29.714Z" style="fill:none;stroke:rgb(110,203,180);stroke-width:0.24px;"/>
                            <path d="M35.423,13.712C35.421,14.397 34.864,14.952 34.179,14.949C33.494,14.948 32.94,14.389 32.941,13.705C32.943,13.019 33.501,12.464 34.185,12.468C34.872,12.471 35.426,13.027 35.423,13.712Z" style="fill:none;stroke:rgb(110,203,180);stroke-width:0.24px;"/>
                        </g>
                    </g>
                </g>
            </g>
        </g>
    </g>
</svg>
